src/components/Careers/InterviewProcess/images/application.svg

<svg xmlns="http://www.w3.org/2000/svg" xmlns:xlink="http://www.w3.org/1999/xlink" width="83" height="42" version="1.1" viewBox="0 0 83 42"><title>application</title><desc>Created with Sketch.</desc><g id="Page-1" fill="none" fill-rule="evenodd" stroke="none" stroke-width="1"><g id="application" transform="translate(-12.000000, -33.000000)"><g id="Group"><rect id="Rectangle" width="108.132" height="108.132" x="0" y="0" fill-rule="nonzero" rx="9.403"/><rect id="Rectangle" width="105.132" height="105.132" x="1.5" y="1.5" rx="7.903"/></g><path id="Shape" fill="#E83DEC" fill-rule="nonzero" d="M22.8144,39.066 L21.4544,39.066 L21.4544,40.506 L15.7544,40.506 L15.7544,43.366 L12.8544,43.366 L12.8544,33.406 L21.3944,33.406 L21.3944,34.766 L22.8144,34.766 L22.8144,39.066 Z M19.9544,39.066 L19.9544,34.826 L15.7144,34.826 L15.7144,39.066 L19.9544,39.066 Z M32.0705,43.366 L23.5305,43.366 L23.5305,33.406 L26.3505,33.406 L26.3505,41.906 L32.0705,41.906 L32.0705,43.366 Z M45.6066,43.366 L42.7866,43.366 L42.7866,40.526 L38.5466,40.526 L38.5466,43.366 L35.6466,43.366 L35.6466,36.246 L37.0066,36.246 L37.0066,34.826 L38.4466,34.826 L38.4466,33.406 L42.7466,33.406 L42.7466,34.766 L44.1866,34.766 L44.1866,36.186 L45.6066,36.186 L45.6066,43.366 Z M42.7466,39.066 L42.7466,36.186 L41.3266,36.186 L41.3266,34.826 L39.8666,34.826 L39.8666,36.266 L38.5066,36.266 L38.5066,39.066 L42.7466,39.066 Z M56.2827,37.646 L54.9227,37.646 L54.9227,39.066 L53.5027,39.066 L53.5027,43.366 L50.6027,43.366 L50.6027,39.146 L49.1827,39.146 L49.1827,37.706 L47.7427,37.706 L47.7427,33.406 L50.5627,33.406 L50.5627,37.646 L53.4027,37.646 L53.4027,33.406 L56.2827,33.406 L56.2827,37.646 Z M68.5787,43.286 L58.4987,43.286 L58.4987,33.226 L68.5787,33.226 L68.5787,34.626 L61.3987,34.626 L61.3987,37.486 L65.6987,37.486 L65.6987,38.966 L61.3987,38.966 L61.3987,41.826 L68.5787,41.826 L68.5787,43.286 Z M79.7948,39.066 L76.9748,39.066 L76.9748,40.466 L78.3748,40.466 L78.3748,41.906 L79.7948,41.906 L79.7948,43.366 L75.5548,43.366 L75.5548,42.006 L74.1348,42.006 L74.1348,40.526 L72.7348,40.526 L72.7348,43.366 L69.8348,43.366 L69.8348,33.406 L78.3748,33.406 L78.3748,34.766 L79.7948,34.766 L79.7948,39.066 Z M76.9348,37.646 L76.9348,34.826 L72.6948,34.826 L72.6948,39.066 L75.5748,39.066 L75.5748,37.646 L76.9348,37.646 Z M94.0095,43.366 L85.4695,43.366 L85.4695,41.966 L88.2895,41.966 L88.2895,36.286 L86.9095,36.286 L86.9095,34.826 L88.2695,34.826 L88.2695,33.406 L91.1495,33.406 L91.1495,41.906 L94.0095,41.906 L94.0095,43.366 Z M35.6898,72.926 L34.3298,72.926 L34.3298,74.366 L27.1698,74.366 L27.1698,73.006 L25.7298,73.006 L25.7298,71.546 L28.5498,71.546 L28.5498,72.926 L32.8498,72.926 L32.8498,70.146 L27.1698,70.146 L27.1698,68.706 L25.7298,68.706 L25.7298,65.826 L27.0898,65.826 L27.0898,64.406 L32.8298,64.406 L32.8298,65.766 L34.2698,65.766 L34.2698,67.206 L31.4498,67.206 L31.4498,65.826 L28.5898,65.826 L28.5898,68.606 L34.2698,68.606 L34.2698,70.046 L35.6898,70.046 L35.6898,72.926 Z M44.9459,65.786 L42.1459,65.786 L42.1459,74.366 L39.2659,74.366 L39.2659,65.866 L36.4059,65.866 L36.4059,64.406 L44.9459,64.406 L44.9459,65.786 Z M58.482,74.366 L55.662,74.366 L55.662,71.526 L51.422,71.526 L51.422,74.366 L48.522,74.366 L48.522,67.246 L49.882,67.246 L49.882,65.826 L51.322,65.826 L51.322,64.406 L55.622,64.406 L55.622,65.766 L57.062,65.766 L57.062,67.186 L58.482,67.186 L58.482,74.366 Z M55.622,70.066 L55.622,67.186 L54.202,67.186 L54.202,65.826 L52.742,65.826 L52.742,67.266 L51.382,67.266 L51.382,70.066 L55.622,70.066 Z M69.878,70.066 L67.058,70.066 L67.058,71.466 L68.458,71.466 L68.458,72.906 L69.878,72.906 L69.878,74.366 L65.638,74.366 L65.638,73.006 L64.218,73.006 L64.218,71.526 L62.818,71.526 L62.818,74.366 L59.918,74.366 L59.918,64.406 L68.458,64.406 L68.458,65.766 L69.878,65.766 L69.878,70.066 Z M67.018,68.646 L67.018,65.826 L62.778,65.826 L62.778,70.066 L65.658,70.066 L65.658,68.646 L67.018,68.646 Z M79.1341,65.786 L76.3341,65.786 L76.3341,74.366 L73.4541,74.366 L73.4541,65.866 L70.5941,65.866 L70.5941,64.406 L79.1341,64.406 L79.1341,65.786 Z"/></g></g></svg>

<svg viewBox="0 0 83 42"><g fill="none" fill-rule="evenodd" transform="translate(-12 -33)"><rect width="108.132" height="108.132" rx="9.403"/><rect width="105.132" height="105.132" x="1.5" y="1.5" rx="7.903"/><path fill="#E83DEC" fill-rule="nonzero" d="M22.814 39.066h-1.36v1.44h-5.7v2.86h-2.9v-9.96h8.54v1.36h1.42v4.3zm-2.86 0v-4.24h-4.24v4.24h4.24zm12.117 4.3h-8.54v-9.96h2.82v8.5h5.72v1.46zm13.536 0h-2.82v-2.84h-4.24v2.84h-2.9v-7.12h1.36v-1.42h1.44v-1.42h4.3v1.36h1.44v1.42h1.42v7.18zm-2.86-4.3v-2.88h-1.42v-1.36h-1.46v1.44h-1.36v2.8h4.24zm13.536-1.42h-1.36v1.42h-1.42v4.3h-2.9v-4.22h-1.42v-1.44h-1.44v-4.3h2.82v4.24h2.84v-4.24h2.88v4.24zm12.296 5.64h-10.08v-10.06h10.08v1.4h-7.18v2.86h4.3v1.48h-4.3v2.86h7.18v1.46zm11.216-4.22h-2.82v1.4h1.4v1.44h1.42v1.46h-4.24v-1.36h-1.42v-1.48h-1.4v2.84h-2.9v-9.96h8.54v1.36h1.42v4.3zm-2.86-1.42v-2.82h-4.24v4.24h2.88v-1.42h1.36zm17.075 5.72h-8.54v-1.4h2.82v-5.68h-1.38v-1.46h1.36v-1.42h2.88v8.5h2.86v1.46zm-58.32 29.56h-1.36v1.44h-7.16v-1.36h-1.44v-1.46h2.82v1.38h4.3v-2.78h-5.68v-1.44h-1.44v-2.88h1.36v-1.42h5.74v1.36h1.44v1.44h-2.82v-1.38h-2.86v2.78h5.68v1.44h1.42v2.88zm9.256-7.14h-2.8v8.58h-2.88v-8.5h-2.86v-1.46h8.54v1.38zm13.536 8.58h-2.82v-2.84h-4.24v2.84h-2.9v-7.12h1.36v-1.42h1.44v-1.42h4.3v1.36h1.44v1.42h1.42v7.18zm-2.86-4.3v-2.88h-1.42v-1.36h-1.46v1.44h-1.36v2.8h4.24zm14.256 0h-2.82v1.4h1.4v1.44h1.42v1.46h-4.24v-1.36h-1.42v-1.48h-1.4v2.84h-2.9v-9.96h8.54v1.36h1.42v4.3zm-2.86-1.42v-2.82h-4.24v4.24h2.88v-1.42h1.36zm12.116-2.86h-2.8v8.58h-2.88v-8.5h-2.86v-1.46h8.54v1.38z"/></g></svg>
